lib/healthicons/icons/solid/devices/stethoscope.svg

<svg fill="none" height="48" viewBox="0 0 48 48" width="48" xmlns="http://www.w3.org/2000/svg"><path d="m12 10c1.1046 0 2-.89543 2-2s-.8954-2-2-2c-.7403 0-1.3866.4022-1.7324 1h-.2676c-1.65685 0-3 1.34315-3 3v9c-.55226 0-1.00469.4487-.95457.9987.23249 2.5512 1.35025 4.9533 3.17643 6.7795 1.33914 1.3391 2.98794 2.2973 4.77814 2.8048v2.417c0 1.3064.835 2.4177 2.0004 2.8294.0426 3.9675 3.2721 7.1706 7.2496 7.1706 4.0041 0 7.25-3.2459 7.25-7.25v-4c0-2.0711 1.6789-3.75 3.75-3.75s3.75 1.6789 3.75 3.75v2.4207c-1.1652.4118-2 1.5231-2 2.8293 0 1.6569 1.3431 3 3 3s3-1.3431 3-3c0-1.3062-.8348-2.4175-2-2.8293v-2.4207c0-3.1756-2.5744-5.75-5.75-5.75s-5.75 2.5744-5.75 5.75v4c0 2.8995-2.3505 5.25-5.25 5.25-2.8731 0-5.2071-2.3079-5.2494-5.1709 1.1649-.412 1.9994-1.5231 1.9994-2.8291v-2.417c1.7902-.5075 3.4391-1.4657 4.7782-2.8048 1.8262-1.8262 2.9439-4.2283 3.1764-6.7795.0502-.55-.4023-.9987-.9546-.9987v-9c0-1.65685-1.3431-3-3-3h-.2676c-.3458-.5978-.9921-1-1.7324-1-1.1046 0-2 .89543-2 2s.8954 2 2 2c.7403 0 1.3866-.4022 1.7324-1h.2676c.5523 0 1 .44772 1 1v9h.2095c-.5523 0-.9929.4499-1.0692.9969-.2155 1.5437-.9276 2.9861-2.0424 4.101-1.3521 1.352-3.1858 2.1116-5.0979 2.1116-1.912 0-3.7458-.7596-5.0978-2.1116-1.1149-1.1149-1.8269-2.5573-2.0424-4.101-.07636-.547-.51694-.9969-1.06923-.9969h.20943v-9c0-.55228.44772-1 1-1h.2676c.3458.5978.9921 1 1.7324 1z" fill="#333"/></svg>

<svg width="48" height="48" viewBox="0 0 48 48" fill="none" xmlns="http://www.w3.org/2000/svg">
<path d="M12 10C13.1046 10 14 9.10457 14 8C14 6.89543 13.1046 6 12 6C11.2597 6 10.6134 6.4022 10.2676 7H10C8.34315 7 7 8.34315 7 10V19C6.44774 19 5.99531 19.4487 6.04543 19.9987C6.27792 22.5499 7.39568 24.952 9.22186 26.7782C10.561 28.1173 12.2098 29.0755 14 29.583V32C14 33.3064 14.835 34.4177 16.0004 34.8294C16.043 38.7969 19.2725 42 23.25 42C27.2541 42 30.5 38.7541 30.5 34.75V30.75C30.5 28.6789 32.1789 27 34.25 27C36.3211 27 38 28.6789 38 30.75V33.1707C36.8348 33.5825 36 34.6938 36 36C36 37.6569 37.3431 39 39 39C40.6569 39 42 37.6569 42 36C42 34.6938 41.1652 33.5825 40 33.1707V30.75C40 27.5744 37.4256 25 34.25 25C31.0744 25 28.5 27.5744 28.5 30.75V34.75C28.5 37.6495 26.1495 40 23.25 40C20.3769 40 18.0429 37.6921 18.0006 34.8291C19.1655 34.4171 20 33.306 20 32V29.583C21.7902 29.0755 23.4391 28.1173 24.7782 26.7782C26.6044 24.952 27.7221 22.5499 27.9546 19.9987C28.0048 19.4487 27.5523 19 27 19L27 10C27 8.34315 25.6569 7 24 7H23.7324C23.3866 6.4022 22.7403 6 22 6C20.8954 6 20 6.89543 20 8C20 9.10457 20.8954 10 22 10C22.7403 10 23.3866 9.5978 23.7324 9H24C24.5523 9 25 9.44772 25 10V19H25.2095C24.6572 19 24.2166 19.4499 24.1403 19.9969C23.9248 21.5406 23.2127 22.983 22.0979 24.0979C20.7458 25.4499 18.9121 26.2095 17 26.2095C15.088 26.2095 13.2542 25.4499 11.9022 24.0979C10.7873 22.983 10.0753 21.5406 9.8598 19.9969C9.78344 19.4499 9.34286 19 8.79057 19L9 19V10C9 9.44772 9.44772 9 10 9H10.2676C10.6134 9.5978 11.2597 10 12 10Z" fill="#333333"/>
</svg>
